X: 46
T: Rip The Calico
M: 4/4
L: 1/8
R: reel
K:D
"D"~d3c defd | "G"ed (3Bcd "A7"egfe |"D" ~d2dc defd | "A(Bm)"efdB "A"A3B :|
|:"Bm"dB~B2 "G"g2fd |ed (3Bcd "A7"egfe | "Bm"dB~B2 "G"g2fd |"A(Bm)"efdB "A"A3B :|
"D"faaf gefd | "G"ed (3Bcd "A7"egfe | "D"faaf gefd |"A(Bm)"efdB "A"~A3g |
"D"faaf gefd | "G"ed (3Bcd "A7"egfe |"D"fa~a2 "Bm"b2bf | "A"~e3f g2fe |]


